X: 1
T:Nixon's Farewell
C:Curt Bouterse (@Copyright 1974, Curtis Carlisle Bouterse)
R:reel
L:1/8
M:C|
K:D
|: "D"FA-A2 A3A | "G"BABc d2e2 | "D"fdfd g2f2 | "A"e6 (3ABc |
   "D"d2A2 F2A2 | "G"BABc d2g2 | "D"fedf "A"e2c2 |\
  [1 "D"d4 d4 :|[2 "D"d6 e2 ||
|: "D"fdfd "G"gdgd | "D"fgfe d2e2 | fdfd "G"gdfd | "A"e6 e2 |
   "D"fdfd "G"gdgd | "D"fgfe d2a2 | fedf "A"e2c2 |\
  [1  "D"d6 e2 :|[2 "D"d4 d4 |]
N:Portland Collection, pg 147 - abc by Peter Ostapenko 3/16/2007
N:D Major
